src/icons/apple-mobile.svg

<svg width="20" height="25" viewBox="0 0 20 25" fill="none" xmlns="http://www.w3.org/2000/svg">
<path d="M10.5132 24.4707C6.68168 24.4707 3.62684 22.4032 2.74805 21.4513V8.7369C4.85714 4.70692 11.5661 5.84369 16.7965 8.41426C19.7844 9.8827 20.3996 14.6655 19.7844 18.156C19.1693 21.6466 15.3026 24.4707 10.5132 24.4707Z" fill="#C22D22"/>
<path d="M4.17871 20.8287V9.87753C12.443 7.09332 13.1294 21.4362 9.69741 21.9424C6.95179 22.3474 4.87427 21.3687 4.17871 20.8287Z" fill="#FFFDED"/>
<path d="M5.37391 16.4307C5.35534 17.0763 5.6302 18.3143 6.87821 18.1017C8.12622 17.889 6.39534 16.899 5.37391 16.4307Z" fill="#C22D22"/>
<path d="M5.32442 15.8852C6.29323 16.0321 8.22191 16.1189 8.18615 15.2913C8.15039 14.4637 6.26343 15.3424 5.32442 15.8852Z" fill="#C22D22"/>
<path d="M5.35621 14.6733C6.32456 14.5253 8.09792 14.0486 7.44452 13.3259C6.79113 12.6032 5.78007 13.923 5.35621 14.6733Z" fill="#C22D22"/>
<path d="M4.77907 4.71957C3.02812 5.26977 2.88221 7.36636 3.02812 8.34588H4.77907V6.72029C4.77907 5.76995 7.46386 4.99051 8.80625 4.71957V3.78174C8.19342 3.8651 6.53002 4.16938 4.77907 4.71957Z" fill="#22181B" stroke="#C22D22"/>
<path d="M2.85588 1.05028C3.80631 1.40612 5.41234 2.73652 5.93023 3.62648L6.08851 4.44783L5.17394 4.38547C1.44191 4.03813 -1.59925 -0.617704 2.85588 1.05028Z" fill="#0C6535"/>
</svg>

<svg xmlns="http://www.w3.org/2000/svg" width="20" height="25" fill="none">
  <path fill="#C22D22" d="M10.513 24.47c-3.831 0-6.886-2.067-7.765-3.019V8.737c2.11-4.03 8.818-2.893 14.049-.323 2.987 1.469 3.603 6.252 2.987 9.742-.615 3.49-4.481 6.315-9.27 6.315Z"/>
  <path fill="#FFFDED" d="M4.179 20.829V9.878c8.264-2.785 8.95 11.558 5.518 12.064-2.745.405-4.823-.573-5.518-1.113Z"/>
  <path fill="#C22D22" d="M5.374 16.43c-.019.646.256 1.884 1.504 1.672 1.248-.213-.483-1.203-1.504-1.671ZM5.324 15.885c.97.147 2.898.234 2.862-.594-.036-.827-1.923.051-2.862.594ZM5.356 14.673c.969-.148 2.742-.624 2.089-1.347-.654-.723-1.665.597-2.089 1.347Z"/>
  <path fill="#22181B" stroke="#C22D22" d="M4.78 4.72c-1.752.55-1.898 2.646-1.752 3.626H4.78V6.72c0-.95 2.685-1.73 4.027-2v-.938c-.613.083-2.276.387-4.027.938Z"/>
  <path fill="#0C6535" d="M2.856 1.05c.95.356 2.556 1.687 3.074 2.576l.159.822-.915-.063C1.442 4.038-1.6-.618 2.856 1.05Z"/>
</svg>
